X:321
T: Qing jiang he
N: C0952
O: China, Hubei
S: MM, S. 132 , Quelle S. Bandprotokoll)]
N: Die Saengerin Lei Huilan ist Angehoerige der Zhuang Minderheit und
N: studiert an der Guangzhouer Musikhochschule.
N: Aufgenommen am 5.5.87
R: Xiaodiao. Yumin shenghuo]
M: 2/4
L: 1/16
K: Eb
c2c4B2 | c2c4B2 | c2e2cecB | A8
A2A4B2 | c2c4B2 | G2F2GBFE | C8
C2C4E2 | F2F4E2 | E2F2GFGB | c8
c2c4BG | F3GF2E2 | F2E2C2c4Bc | B2G2F2E2 | C8

